X: 3811
T: Black Cat, The
R: jig
M: 6/8
K: Dminor
c|:d2A DEF|ABA E2F|G3 GFE|A,^CE GFE|
DdA DEF|ABA E2F|G3 A,^CE|GFE D2c:|
|:d2e fgf|e^cA Ade|~g3 gfe|gba gfe|
d2e fgf|ea^g a3|A^ce Ace|1 gfe d2A:|2 gfe d3||

